app/images/icons/work-3.svg

<svg width="50" height="50" viewBox="0 0 50 50" fill="none" xmlns="http://www.w3.org/2000/svg">
<path d="M41.8953 48.6486H8.10811C7.92891 48.6486 7.75705 48.5774 7.63034 48.4507C7.50362 48.324 7.43243 48.1521 7.43243 47.9729V2.02699C7.43243 1.84779 7.50362 1.67593 7.63034 1.54922C7.75705 1.42251 7.92891 1.35132 8.10811 1.35132H31.0878C31.2669 1.35118 31.4387 1.42214 31.5655 1.54862L42.3764 12.3533C42.5031 12.48 42.5743 12.6519 42.5743 12.831V47.9729C42.5743 48.062 42.5567 48.1501 42.5226 48.2323C42.4884 48.3145 42.4383 48.3891 42.3752 48.4519C42.3121 48.5147 42.2372 48.5644 42.1549 48.5981C42.0725 48.6319 41.9843 48.6491 41.8953 48.6486ZM8.78379 47.2973H41.223V13.1115L30.8047 2.70267H8.78379V47.2973Z" fill="#CA6D38"/>
<path d="M41.8953 13.5202H31.0845C30.9053 13.5202 30.7335 13.449 30.6067 13.3223C30.48 13.1956 30.4088 13.0238 30.4088 12.8446V2.02699C30.4088 1.84779 30.48 1.67593 30.6067 1.54922C30.7335 1.42251 30.9053 1.35132 31.0845 1.35132C31.2637 1.35132 31.4356 1.42251 31.5623 1.54922C31.689 1.67593 31.7602 1.84779 31.7602 2.02699V12.1689H41.8953C42.0745 12.1689 42.2464 12.2401 42.3731 12.3668C42.4998 12.4935 42.571 12.6654 42.571 12.8446C42.571 13.0238 42.4998 13.1956 42.3731 13.3223C42.2464 13.449 42.0745 13.5202 41.8953 13.5202Z" fill="#CA6D38"/>
<path d="M37.1621 25.5068H12.8412C12.662 25.5068 12.4901 25.4356 12.3634 25.3088C12.2367 25.1821 12.1655 25.0103 12.1655 24.8311C12.1655 24.6519 12.2367 24.48 12.3634 24.3533C12.4901 24.2266 12.662 24.1554 12.8412 24.1554H37.1621C37.3413 24.1554 37.5132 24.2266 37.6399 24.3533C37.7666 24.48 37.8378 24.6519 37.8378 24.8311C37.8378 25.0103 37.7666 25.1821 37.6399 25.3088C37.5132 25.4356 37.3413 25.5068 37.1621 25.5068Z" fill="#CA6D38"/>
<path d="M37.1621 20.1581H12.8412C12.662 20.1581 12.4901 20.0869 12.3634 19.9602C12.2367 19.8335 12.1655 19.6616 12.1655 19.4824C12.1655 19.3032 12.2367 19.1314 12.3634 19.0047C12.4901 18.878 12.662 18.8068 12.8412 18.8068H37.1621C37.3413 18.8068 37.5132 18.878 37.6399 19.0047C37.7666 19.1314 37.8378 19.3032 37.8378 19.4824C37.8378 19.6616 37.7666 19.8335 37.6399 19.9602C37.5132 20.0869 37.3413 20.1581 37.1621 20.1581Z" fill="#CA6D38"/>
<path d="M27.027 14.8101H12.8412C12.662 14.8101 12.4901 14.7389 12.3634 14.6122C12.2367 14.4855 12.1655 14.3136 12.1655 14.1344C12.1655 13.9552 12.2367 13.7834 12.3634 13.6566C12.4901 13.5299 12.662 13.4587 12.8412 13.4587H27.027C27.2062 13.4587 27.378 13.5299 27.5048 13.6566C27.6315 13.7834 27.7027 13.9552 27.7027 14.1344C27.7027 14.3136 27.6315 14.4855 27.5048 14.6122C27.378 14.7389 27.2062 14.8101 27.027 14.8101Z" fill="#CA6D38"/>
<path d="M27.027 9.45951H12.8412C12.662 9.45951 12.4901 9.38832 12.3634 9.26161C12.2367 9.13489 12.1655 8.96303 12.1655 8.78383C12.1655 8.60463 12.2367 8.43277 12.3634 8.30606C12.4901 8.17934 12.662 8.10815 12.8412 8.10815H27.027C27.2062 8.10815 27.378 8.17934 27.5048 8.30606C27.6315 8.43277 27.7027 8.60463 27.7027 8.78383C27.7027 8.96303 27.6315 9.13489 27.5048 9.26161C27.378 9.38832 27.2062 9.45951 27.027 9.45951Z" fill="#CA6D38"/>
<path d="M25.0001 43.5527C23.5859 43.5527 22.2033 43.1333 21.0274 42.3476C19.8515 41.5619 18.935 40.4451 18.3938 39.1385C17.8525 37.8319 17.7109 36.3941 17.9868 35.007C18.2628 33.6199 18.9438 32.3458 19.9438 31.3457C20.9439 30.3457 22.218 29.6647 23.6051 29.3887C24.9922 29.1128 26.43 29.2544 27.7366 29.7957C29.0432 30.3369 30.16 31.2534 30.9457 32.4293C31.7314 33.6052 32.1508 34.9878 32.1508 36.402C32.1488 38.2979 31.3948 40.1156 30.0542 41.4562C28.7137 42.7967 26.896 43.5507 25.0001 43.5527ZM25.0001 30.6027C23.8531 30.6027 22.7319 30.9428 21.7782 31.5801C20.8245 32.2173 20.0812 33.123 19.6422 34.1827C19.2033 35.2424 19.0885 36.4085 19.3122 37.5334C19.536 38.6584 20.0883 39.6917 20.8994 40.5028C21.7104 41.3138 22.7438 41.8662 23.8687 42.0899C24.9937 42.3137 26.1597 42.1988 27.2194 41.7599C28.2791 41.321 29.1849 40.5777 29.8221 39.624C30.4593 38.6703 30.7995 37.549 30.7995 36.402C30.7978 34.8644 30.1863 33.3903 29.0991 32.3031C28.0119 31.2158 26.5377 30.6043 25.0001 30.6027Z" fill="#CA6D38"/>
<path d="M23.7967 39.0837C23.6175 39.0837 23.4457 39.0125 23.319 38.8857L21.7142 37.281C21.5912 37.1536 21.5231 36.9829 21.5246 36.8057C21.5261 36.6286 21.5972 36.4591 21.7225 36.3338C21.8477 36.2086 22.0172 36.1375 22.1944 36.136C22.3715 36.1344 22.5422 36.2025 22.6696 36.3256L23.7967 37.4526L27.3305 33.9182C27.4579 33.7951 27.6286 33.727 27.8057 33.7285C27.9829 33.7301 28.1524 33.8011 28.2776 33.9264C28.4029 34.0517 28.474 34.2212 28.4755 34.3983C28.477 34.5755 28.4089 34.7462 28.2859 34.8736L24.2744 38.8857C24.1477 39.0125 23.9759 39.0837 23.7967 39.0837Z" fill="#CA6D38"/>
</svg>

<svg xmlns="http://www.w3.org/2000/svg" fill="none" viewBox="0 0 50 50"><defs/><path fill="#CA6D38" d="M41.8953 48.6486H8.10811c-.1792 0-.35106-.0712-.47777-.1979-.12672-.1267-.19791-.2986-.19791-.4778V2.02699c0-.1792.07119-.35106.19791-.47777.12671-.12671.29857-.1979.47777-.1979H31.0878c.1791-.00014.3509.07082.4777.1973L42.3764 12.3533c.1267.1267.1979.2986.1979.4777v35.1419c0 .0891-.0176.1772-.0517.2594-.0342.0822-.0843.1568-.1474.2196s-.138.1125-.2203.1462c-.0824.0338-.1706.051-.2596.0505zM8.78379 47.2973H41.223V13.1115L30.8047 2.70267H8.78379V47.2973z"/><path fill="#CA6D38" d="M41.8953 13.5202H31.0845c-.1792 0-.351-.0712-.4778-.1979-.1267-.1267-.1979-.2985-.1979-.4777V2.02699c0-.1792.0712-.35106.1979-.47777.1268-.12671.2986-.1979.4778-.1979.1792 0 .3511.07119.4778.1979.1267.12671.1979.29857.1979.47777V12.1689h10.1351c.1792 0 .3511.0712.4778.1979.1267.1267.1979.2986.1979.4778 0 .1792-.0712.351-.1979.4777-.1267.1267-.2986.1979-.4778.1979zM37.1621 25.5068H12.8412c-.1792 0-.3511-.0712-.4778-.198-.1267-.1267-.1979-.2985-.1979-.4777 0-.1792.0712-.3511.1979-.4778.1267-.1267.2986-.1979.4778-.1979h24.3209c.1792 0 .3511.0712.4778.1979.1267.1267.1979.2986.1979.4778 0 .1792-.0712.351-.1979.4777-.1267.1268-.2986.198-.4778.198zM37.1621 20.1581H12.8412c-.1792 0-.3511-.0712-.4778-.1979-.1267-.1267-.1979-.2986-.1979-.4778 0-.1792.0712-.351.1979-.4777.1267-.1267.2986-.1979.4778-.1979h24.3209c.1792 0 .3511.0712.4778.1979.1267.1267.1979.2985.1979.4777 0 .1792-.0712.3511-.1979.4778-.1267.1267-.2986.1979-.4778.1979zM27.027 14.8101H12.8412c-.1792 0-.3511-.0712-.4778-.1979-.1267-.1267-.1979-.2986-.1979-.4778 0-.1792.0712-.351.1979-.4778.1267-.1267.2986-.1979.4778-.1979H27.027c.1792 0 .351.0712.4778.1979.1267.1268.1979.2986.1979.4778 0 .1792-.0712.3511-.1979.4778-.1268.1267-.2986.1979-.4778.1979zM27.027 9.45951H12.8412c-.1792 0-.3511-.07119-.4778-.1979-.1267-.12672-.1979-.29858-.1979-.47778 0-.1792.0712-.35106.1979-.47777.1267-.12672.2986-.19791.4778-.19791H27.027c.1792 0 .351.07119.4778.19791.1267.12671.1979.29857.1979.47777 0 .1792-.0712.35106-.1979.47778-.1268.12671-.2986.1979-.4778.1979zM25.0001 43.5527c-1.4142 0-2.7968-.4194-3.9727-1.2051-1.1759-.7857-2.0924-1.9025-2.6336-3.2091-.5413-1.3066-.6829-2.7444-.407-4.1315.276-1.3871.957-2.6612 1.957-3.6613 1.0001-1 2.2742-1.681 3.6613-1.957 1.3871-.2759 2.8249-.1343 4.1315.407 1.3066.5412 2.4234 1.4577 3.2091 2.6336.7857 1.1759 1.2051 2.5585 1.2051 3.9727-.002 1.8959-.756 3.7136-2.0966 5.0542-1.3405 1.3405-3.1582 2.0945-5.0541 2.0965zm0-12.95c-1.147 0-2.2682.3401-3.2219.9774-.9537.6372-1.697 1.5429-2.136 2.6026-.4389 1.0597-.5537 2.2258-.33 3.3507.2238 1.125.7761 2.1583 1.5872 2.9694.811.811 1.8444 1.3634 2.9693 1.5871 1.125.2238 2.291.1089 3.3507-.33 1.0597-.4389 1.9655-1.1822 2.6027-2.1359s.9774-2.075.9774-3.222c-.0017-1.5376-.6132-3.0117-1.7004-4.0989-1.0872-1.0873-2.5614-1.6988-4.099-1.7004z"/><path fill="#CA6D38" d="M23.7967 39.0837c-.1792 0-.351-.0712-.4777-.198l-1.6048-1.6047c-.123-.1274-.1911-.2981-.1896-.4753.0015-.1771.0726-.3466.1979-.4719.1252-.1252.2947-.1963.4719-.1978.1771-.0016.3478.0665.4752.1896l1.1271 1.127 3.5338-3.5344c.1274-.1231.2981-.1912.4752-.1897.1772.0016.3467.0726.4719.1979.1253.1253.1964.2948.1979.4719.0015.1772-.0666.3479-.1896.4753l-4.0115 4.0121c-.1267.1268-.2985.198-.4777.198z"/></svg>
